X:1
T:He comes, let every heart rejoice
T:He comes, let every heart rejoice (Joseph Key)
C:Joseph Key
Z:Text: Anonymous (given in full in Five Anthems)
%%score [ 1 ( 2 3 ) ( 4 5 ) ]
L:1/8
M:2/4
K:A
V:1 treble nm="Soprano" snm="S."
V:2 treble nm="Soprano" snm="S."
V:3 treble 
V:4 bass nm="Bass" snm="B."
V:5 bass 
V:1
"^Moderato" E | A3 B | (c>d e)f | (ed) (cB) | c2 z c | B2 (AG) | (BA) (GF) | G4 | A2 AB | %9
w: To|save man-|kind _ _ from|end- * less _|death, The|Son of _|God _ came _|down;|To pur- chase|
w: He|comes, let|ev- * * ’ry|heart _ re- *|joice, Be-|hold the _|sa- * cred _|morn;|Be chear- ful|
w: With-|in a|man- * * ger|there _ be- *|hold The|bles- sed _|in- * fant _|lie;|In hum- ble|
 (c>d c/d/)e | d2 Tc2 | B2 z G | A2 (AG) | (FG) (A>B) | (AG) z G | (A>B c)d | (c3/2B/4A/4) TB2 | %17
w: for _ _ _ their|race on|earth A|ne- ver _|end- * ing _|crown, _ a|ne- * * ver-|end- * * ing|
w: and _ _ _ lift|up your|voice, The|great Mes- *|si- * ah’s _|born, _ the|great _ _ Mes-|si- * * ah’s|
w: dress, _ _ _ not|robes of|gold, No,|he is _|born _ to _|die, _ no,|he _ _ is|born _ _ to|
 A3 ||[M:2/2]"^CHORUSLively" e3 d c2 (cB) | A2 G2 (A>B) A2 | f3 e d2 (cd) | e2 (dc) Tc2 B2 | %22
w: crown.|||||
w: born.|See the heav’n- ly _|host at- tend- * ing,|See the God of _|love des- * cend- ing,|
w: die.|||||
 B3 c (B/c/B/A/G)A | (Bc/B/A)G (TG2 F2) | B3 A (GE)(AF) | E2 T^D2 E4 |: A2 (AG) F2 (F/G/A) | %27
w: |||||
w: Pain and sor- * * * * row|to _ _ _ en- dure, _|Our sal- va- * tion _|to pro- cure,|Pain and _ sor- row _ _|
w: |||||
 B2 (BA) G4 | A3 B (3(cde) (3(fed) | c2 TB2 A4 :| %30
w: |||
w: to en- * dure,|Our sal- va- * * tion _ _|to pro- cure.|
w: |||
V:2
 (A/>B/) | c3 G | (A>B c)d | (cB) (AG) | A2 z A | G2 (FE) | (GF) (E^D) | E4 | c2 cG | (A>B A/B/)c | %10
w: To _|save man-|kind _ _ from|end- * less _|death, The|Son of _|God _ came _|down;|To pur- chase|for _ _ _ their|
w: He _|comes, let|ev- * * ’ry|heart _ re- *|joice, Be-|hold the _|sa- * cred _|morn;|Be chear- ful|and _ _ _ lift|
w: With- *|in a|man- * * ger|there _ be- *|hold The|bles- sed _|in- * fant _|lie;|In hum- ble|dress, _ _ _ not|
 B2 TA2 | G2 z B | c2 c2 | d2 (c>d) | (cB) z B | (c>d e)f | e2 (d3/2c/4d/4) | c3 || %18
w: race on|earth A|ne- ver|end- ing _|crown, _ a|ne- * * ver-|end- ing _ _|crown.|
w: up your|voice, The|great Mes-|si- ah’s _|born, _ the|great _ _ Mes-|si- ah’s _ _|born.|
w: robes of|gold, No,|he is|born to _|die, _ no,|he _ _ is|born to _ _|die.|
[M:2/2] c3 B A2 A2 | (dc) B2 c2 c2 | d3 c B2 (AB) | c2 (BA) TA2 G2 | G3 A (G/F/G/A/B)A | %23
w: |||||
w: See the heav’n- ly|host _ at- tend- ing,|See the God of _|love des- * cend- ing,|Pain and sor- * * * * row|
w: |||||
 (GA/G/F)E (TE2 ^D2) | G3 A (BG)(cA) | G2 TF2 G4 |: c2 (cB) A2 (A/B/c) | d2 (dc) B4 | %28
w: |||||
w: to _ _ _ en- dure, _|Our sal- va- * tion _|to pro- cure,|Pain and _ sor- row _ _|to en- * dure,|
w: |||||
 e3 d (3(cBc) (3(dcB) | e2 Td2 c4 :| %30
w: ||
w: Our sal- va- * * tion _ _|to pro- cure.|
w: ||
V:3
 x | x4 | x4 | x4 | x4 | x4 | x4 | x4 | x4 | x4 | x4 | x4 | x4 | x4 | x4 | x4 | x4 | x3 || %18
[M:2/2] x8 | x8 | x8 | x8 | x8 | x8 | x8 | x8 |: x8 | x8 | x8 | A2 G2 A4 :| %30
V:4
 A,, | A,,3 E, | A,3 D, | E,2 [E,,E,]2 | A,,2 z A,, | E,2 (A,,/B,,/C,) | B,,2 B,,2 | [E,,E,]4 | %8
w: To|save man-|kind from|end- less|death, The|Son of _ _|God came|down;|
w: He|comes, let|ev- ’ry|heart re-|joice, Be-|hold the _ _|sa- cred|morn;|
w: With-|in a|man- ger|there be-|hold The|bles- sed _ _|in- fant|lie;|
 A,,2 A,,E, | %9
w: To pur- chase|
w: Be chear- ful|
w: In hum- ble|
"^Notes:The first verse and chorus only are underlaid in the source: the three subsequent verses are printed after themusic, in each case followed by 'Chos.' to indicate that the chorus should be sung after each verse.The notes given in the present edition as demisemiquavers in the two upper parts in bar 16 are printed in thesource as small semiquaver grace notes, and have been written out editorially.Similarly, the note given here as a semiquaver B in the first part on beat 2 of bar 19 is printed in the sourceas a small quaver grace note, slurred to the preceding A (which is printed there as a crotchet)." A,3 C, | %10
w: for their|
w: and lift|
w: dress, not|
 D,2 A,,2 | E,2 z E, | (A,G,) (F,E,) | D,2 A,,2 | E,2 z E, | A,3 D, | E,2 [E,,E,]2 | A,,3 || %18
w: race on|earth A|ne- * ver _|end- ing|crown, a|ne- ver-|end- ing|crown.|
w: up your|voice, The|great _ Mes- *|si- ah’s|born, the|great Mes-|si- ah’s|born.|
w: robes of|gold, No,|he _ is _|born to|die, no,|he is|born to|die.|
[M:2/2] A,3 G, A,2 C,2 | D,2 E,2 A,2 A,,2 | D,3 E, (F,G,) A,2 | C,2 D,2 E,2 [E,,E,]2 | %22
w: ||||
w: See the heav’n- ly|host at- tend- ing,|See the God _ of|love des- cend- ing,|
w: ||||
 E,3 A, E,3 F, | G,2 A,2 (B,2 B,,2) | E,3 F, G,2 A,2 | B,2 B,,2 E,4 |: A,,2 A,,2 D,2 (D,C,) | %27
w: |||||
w: Pain and sor- row|to en- dure, _|Our sal- va- tion|to pro- cure,|Pain and sor- row _|
w: |||||
 (B,,C,) D,2 E,4 | C,3 B,, A,,2 D,2 | E,2 [E,,E,]2 A,,4 :| %30
w: |||
w: to _ en- dure,|Our sal- va- tion|to pro- cure.|
w: |||
V:5
 x | x4 | x4 | x4 | x4 | x4 | x4 | x4 | x4 | x4 | x4 | x4 | x4 | x4 | x4 | x4 | x4 | x3 || %18
[M:2/2] x8 | x8 | x8 | x8 | x8 | x8 | x8 | x4 (E,2 E,,2) |: x8 | x8 | x8 | x8 :| %30

